X: 11589
T: Eel In The Sink, The
R: reel
M: 4/4
K: Amixolydian
e2AB cdec|d2BG dG (3Bcd|eAAB cdef|1 gedg eAAc:|2 gedg eAAe||
a2ea aged|cdef (3gbg fg|a2ea agab|gedg eAAe|
a2ea aged|cdef (3gbg fg|afge fdef|gfgd BAAc||

